assets/images/svg/icon-documents.svg

<svg xmlns="http://www.w3.org/2000/svg" width="63" height="66" viewBox="0, 0, 63, 66"><path d="M21.318 28.267h-8.235a.75.75 0 0 0 0 1.5h8.235a.75.75 0 0 0 0-1.5m8.07 21.389H8.656a.75.75 0 0 0 0 1.5h20.732a.75.75 0 0 0 0-1.5m-4.593 4H8.655a.75.75 0 0 0 0 1.5h16.14a.75.75 0 0 0 0-1.5M13.083 14.368h9.184a.75.75 0 0 0 0-1.5h-9.184a.75.75 0 0 0 0 1.5m12.91 0h4.953a.75.75 0 0 0 0-1.5h-4.953a.75.75 0 0 0 0 1.5m7.956-.219a.748.748 0 0 0 1.28-.529c0-.2-.08-.391-.219-.531a.657.657 0 0 0-.241-.16.753.753 0 0 0-.82.16.752.752 0 0 0-.22.531.67.67 0 0 0 .061.279c.029.101.09.181.159.25m3.809 16.341a5.68 5.68 0 0 1-5.673-5.673 5.68 5.68 0 0 1 5.673-5.673 5.679 5.679 0 0 1 5.672 5.673 5.679 5.679 0 0 1-5.672 5.673m0-12.846c-3.955 0-7.173 3.218-7.173 7.173s3.218 7.173 7.173 7.173c3.954 0 7.172-3.218 7.172-7.173s-3.218-7.173-7.172-7.173"/><path d="M59.459 26.469h-6.573v-3.305h6.573c.911 0 1.652.742 1.652 1.653s-.741 1.652-1.652 1.652zM47.98 25.445c.013-.209.034-.416.034-.628 0-.212-.021-.419-.034-.628h3.406v1.256H47.98zm-10.222 8.127c-4.827 0-8.755-3.928-8.755-8.755 0-4.828 3.928-8.756 8.755-8.756 4.827 0 8.756 3.928 8.756 8.756 0 4.827-3.929 8.755-8.756 8.755zm4.471 3.123H17.528a.75.75 0 0 0-.75.75 5.246 5.246 0 0 1-5.24 5.24c-.008 0-.017.005-.024.005-.009 0-.017-.005-.026-.005-2.861 0-5.189-2.333-5.189-5.2v-16.17a.756.756 0 0 0-.05-.241.733.733 0 0 0 .05-.239V5.125l35.93.01v10.466a10.187 10.187 0 0 0-10.94 1.266H13.083a.75.75 0 1 0 0 1.5h16.712a10.26 10.26 0 0 0-1.215 1.9H13.083a.75.75 0 1 0 0 1.5h14.882a10.218 10.218 0 0 0-.434 2.5H13.083a.75.75 0 1 0 0 1.5h14.468c.48 5.21 4.873 9.305 10.207 9.305 1.603 0 3.117-.381 4.471-1.041v2.664zm12.176 1.536c-.362 2.515-2.528 4.454-5.136 4.454H15.773a6.74 6.74 0 0 0 2.463-4.49h29.488l6.681.036zM37.549 60.875H1.888V9.505h2.911v11.33c0 .085.021.163.048.239a.728.728 0 0 0-.048.241v16.17c0 3.694 3 6.7 6.739 6.7h26.011v16.69zm21.91-39.211h-7.323a.75.75 0 0 0-.75.75v.275h-3.597a10.28 10.28 0 0 0-4.06-6.195V4.385a.75.75 0 0 0-.75-.75l-37.43-.01a.75.75 0 0 0-.75.75v3.63H1.138a.75.75 0 0 0-.749.75v52.87c0 .414.336.75.749.75h37.161a.75.75 0 0 0 .75-.75v-17.44h10.22c3.689 0 6.689-3.006 6.689-6.7a.75.75 0 0 0-.745-.75l-7.484-.04h-4v-3.557a10.264 10.264 0 0 0 4.058-6.193h3.599v.274c0 .414.336.75.75.75h7.323a3.156 3.156 0 0 0 3.152-3.152 3.156 3.156 0 0 0-3.152-3.153z"/><path d="M34.75 24.817c0-.383.07-.757.212-1.111a.752.752 0 0 0-.42-.975.752.752 0 0 0-.974.42 4.481 4.481 0 0 0-.318 1.666c0 .977.307 1.905.889 2.687a.744.744 0 0 0 1.048.154.747.747 0 0 0 .154-1.049 2.984 2.984 0 0 1-.591-1.792"/></svg>

<?xml version="1.0" encoding="UTF-8"?>
<!DOCTYPE svg PUBLIC "-//W3C//DTD SVG 1.1//EN" "http://www.w3.org/Graphics/SVG/1.1/DTD/svg11.dtd">
<svg version="1.1" xmlns="http://www.w3.org/2000/svg" xmlns:xlink="http://www.w3.org/1999/xlink" x="0" y="0" width="63" height="66" viewBox="0, 0, 63, 66">
  <g id="Page-1">
    <path d="M21.318,28.267 L13.083,28.267 C12.669,28.267 12.333,28.603 12.333,29.017 C12.333,29.431 12.669,29.767 13.083,29.767 L21.318,29.767 C21.732,29.767 22.068,29.431 22.068,29.017 C22.068,28.603 21.732,28.267 21.318,28.267" fill="#000000" id="Fill-1"/>
    <path d="M29.388,49.656 L8.656,49.656 C8.242,49.656 7.906,49.992 7.906,50.406 C7.906,50.82 8.242,51.156 8.656,51.156 L29.388,51.156 C29.802,51.156 30.138,50.82 30.138,50.406 C30.138,49.992 29.802,49.656 29.388,49.656" fill="#000000" id="Fill-3"/>
    <path d="M24.795,53.656 L8.655,53.656 C8.241,53.656 7.905,53.992 7.905,54.406 C7.905,54.82 8.241,55.156 8.655,55.156 L24.795,55.156 C25.208,55.156 25.545,54.82 25.545,54.406 C25.545,53.992 25.208,53.656 24.795,53.656" fill="#000000" id="Fill-5"/>
    <path d="M13.083,14.368 L22.267,14.368 C22.681,14.368 23.017,14.032 23.017,13.618 C23.017,13.204 22.681,12.868 22.267,12.868 L13.083,12.868 C12.669,12.868 12.333,13.204 12.333,13.618 C12.333,14.032 12.669,14.368 13.083,14.368" fill="#000000" id="Fill-7"/>
    <path d="M25.993,14.368 L30.946,14.368 C31.36,14.368 31.696,14.032 31.696,13.618 C31.696,13.204 31.36,12.868 30.946,12.868 L25.993,12.868 C25.579,12.868 25.243,13.204 25.243,13.618 C25.243,14.032 25.579,14.368 25.993,14.368" fill="#000000" id="Fill-9"/>
    <path d="M33.949,14.149 C34.09,14.29 34.279,14.37 34.479,14.37 C34.679,14.37 34.869,14.29 35.01,14.149 C35.149,14.009 35.229,13.82 35.229,13.62 C35.229,13.42 35.149,13.229 35.01,13.089 C34.939,13.019 34.859,12.96 34.769,12.929 C34.489,12.809 34.159,12.879 33.949,13.089 C33.809,13.229 33.729,13.42 33.729,13.62 C33.729,13.719 33.75,13.809 33.79,13.899 C33.819,14 33.88,14.08 33.949,14.149" fill="#000000" id="Fill-11"/>
    <path d="M37.758,30.49 C34.63,30.49 32.085,27.945 32.085,24.817 C32.085,21.689 34.63,19.144 37.758,19.144 C40.886,19.144 43.43,21.689 43.43,24.817 C43.43,27.945 40.886,30.49 37.758,30.49 M37.758,17.644 C33.803,17.644 30.585,20.862 30.585,24.817 C30.585,28.772 33.803,31.99 37.758,31.99 C41.712,31.99 44.93,28.772 44.93,24.817 C44.93,20.862 41.712,17.644 37.758,17.644" fill="#000000" id="Fill-13"/>
    <path d="M59.459,26.469 L52.886,26.469 L52.886,23.164 L59.459,23.164 C60.37,23.164 61.111,23.906 61.111,24.817 C61.111,25.728 60.37,26.469 59.459,26.469 z M47.98,25.445 C47.993,25.236 48.014,25.029 48.014,24.817 C48.014,24.605 47.993,24.398 47.98,24.189 L51.386,24.189 L51.386,25.445 L47.98,25.445 z M37.758,33.572 C32.931,33.572 29.003,29.644 29.003,24.817 C29.003,19.989 32.931,16.061 37.758,16.061 C42.585,16.061 46.514,19.989 46.514,24.817 C46.514,29.644 42.585,33.572 37.758,33.572 z M42.229,36.695 L17.528,36.695 C17.114,36.695 16.778,37.031 16.778,37.445 C16.778,40.334 14.427,42.685 11.538,42.685 C11.53,42.685 11.521,42.69 11.514,42.69 C11.505,42.69 11.497,42.685 11.488,42.685 C8.627,42.685 6.299,40.352 6.299,37.485 L6.299,21.315 C6.299,21.23 6.275,21.152 6.249,21.074 C6.275,20.998 6.299,20.92 6.299,20.835 L6.299,20.665 L6.299,13.115 L6.299,5.125 L42.229,5.135 L42.229,15.601 C40.875,14.942 39.361,14.561 37.758,14.561 C35.307,14.561 33.056,15.427 31.289,16.867 L13.083,16.867 C12.668,16.867 12.333,17.203 12.333,17.617 C12.333,18.031 12.668,18.367 13.083,18.367 L29.795,18.367 C29.322,18.95 28.917,19.589 28.58,20.267 L13.083,20.267 C12.668,20.267 12.333,20.603 12.333,21.017 C12.333,21.431 12.668,21.767 13.083,21.767 L27.965,21.767 C27.718,22.562 27.576,23.403 27.531,24.267 L13.083,24.267 C12.668,24.267 12.333,24.603 12.333,25.017 C12.333,25.431 12.668,25.767 13.083,25.767 L27.551,25.767 C28.031,30.977 32.424,35.072 37.758,35.072 C39.361,35.072 40.875,34.691 42.229,34.031 L42.229,36.695 z M54.405,38.231 C54.043,40.746 51.877,42.685 49.269,42.685 L38.299,42.685 L32.799,42.685 L15.773,42.685 C17.117,41.596 18.035,40.002 18.236,38.195 L42.979,38.195 L47.724,38.195 L54.405,38.231 z M37.549,60.875 L1.888,60.875 L1.888,9.505 L4.799,9.505 L4.799,13.115 L4.799,20.665 L4.799,20.675 L4.799,20.835 C4.799,20.92 4.82,20.998 4.847,21.074 C4.82,21.152 4.799,21.23 4.799,21.315 L4.799,37.485 C4.799,41.179 7.799,44.185 11.538,44.185 L32.799,44.185 L37.549,44.185 L37.549,60.875 z M59.459,21.664 L52.136,21.664 C51.722,21.664 51.386,22 51.386,22.414 L51.386,22.689 L47.789,22.689 C47.25,20.15 45.766,17.961 43.729,16.494 L43.729,4.385 C43.729,3.971 43.393,3.635 42.979,3.635 L5.549,3.625 C5.35,3.625 5.159,3.704 5.018,3.845 C4.878,3.986 4.799,4.176 4.799,4.375 L4.799,8.005 L1.138,8.005 C0.725,8.005 0.389,8.341 0.389,8.755 L0.389,61.625 C0.389,62.039 0.725,62.375 1.138,62.375 L38.299,62.375 C38.713,62.375 39.049,62.039 39.049,61.625 L39.049,44.185 L49.269,44.185 C52.958,44.185 55.958,41.179 55.958,37.485 C55.958,37.072 55.625,36.737 55.213,36.735 L47.729,36.695 L43.729,36.695 L43.729,33.138 C45.766,31.671 47.25,29.484 47.787,26.945 L51.386,26.945 L51.386,27.219 C51.386,27.633 51.722,27.969 52.136,27.969 L59.459,27.969 C61.197,27.969 62.611,26.555 62.611,24.817 C62.611,23.078 61.197,21.664 59.459,21.664 z" fill="#000000" id="Fill-15"/>
    <path d="M34.75,24.817 C34.75,24.434 34.82,24.06 34.962,23.706 C35.114,23.321 34.927,22.884 34.542,22.731 C34.16,22.58 33.722,22.765 33.568,23.151 C33.356,23.683 33.25,24.244 33.25,24.817 C33.25,25.794 33.557,26.722 34.139,27.504 C34.285,27.702 34.511,27.806 34.74,27.806 C34.896,27.806 35.054,27.758 35.187,27.658 C35.521,27.411 35.589,26.941 35.341,26.609 C34.954,26.088 34.75,25.468 34.75,24.817" fill="#000000" id="Fill-18"/>
  </g>
</svg>
